dump-truck.svg

<svg fill="currentColor" viewBox="0 0 24 24"><path d="M20 8h-5v6H2v3h1a3 3 0 0 0 3 3 3 3 0 0 0 3-3h6a3 3 0 0 0 3 3 3 3 0 0 0 3-3h2v-5zM6 18.5A1.5 1.5 0 0 1 4.5 17 1.5 1.5 0 0 1 6 15.5 1.5 1.5 0 0 1 7.5 17 1.5 1.5 0 0 1 6 18.5m12 0a1.5 1.5 0 0 1-1.5-1.5 1.5 1.5 0 0 1 1.5-1.5 1.5 1.5 0 0 1 1.5 1.5 1.5 1.5 0 0 1-1.5 1.5M17 12V9.5h2.5l1.96 2.5zm1-5h-4v6H3L1.57 8H1V6h12l1-1h4z"/></svg>

<svg  viewBox="0 0 24 24" fill="currentColor"><path  d="M20,8H19L17,8H15V14H2V17H3A3,3 0 0,0 6,20A3,3 0 0,0 9,17H15A3,3 0 0,0 18,20A3,3 0 0,0 21,17H23V12L20,8M6,18.5A1.5,1.5 0 0,1 4.5,17A1.5,1.5 0 0,1 6,15.5A1.5,1.5 0 0,1 7.5,17A1.5,1.5 0 0,1 6,18.5M18,18.5A1.5,1.5 0 0,1 16.5,17A1.5,1.5 0 0,1 18,15.5A1.5,1.5 0 0,1 19.5,17A1.5,1.5 0 0,1 18,18.5M17,12V9.5H19.5L21.46,12H17M18,7H14V13H3L1.57,8H1V6H13L14,5H18V7Z"/></svg>
